brandFactory_export/2.Regular/Documento error_2Regular.svg

<?xml version="1.0" encoding="UTF-8"?>
<svg width="24px" height="24px" viewBox="0 0 24 24" version="1.1" xmlns="http://www.w3.org/2000/svg" xmlns:xlink="http://www.w3.org/1999/xlink">
    <title>2.Regular/Documento error_2Regular</title>
    <g id="Symbols" stroke="none" stroke-width="1" fill="none" fill-rule="evenodd">
        <g id="2.Regular/Documento-error_2Regular" fill="#5CB615" fill-rule="nonzero">
            <path d="M19.087395,22.1714286 C19.205042,22.1714286 19.3193277,22.0537815 19.3193277,21.9663866 L19.3193277,8.23865546 L16.5831933,8.23865546 C15.3865546,8.23865546 14.3512605,7.84537815 13.5915966,7.09579832 C12.8252101,6.3394958 12.4218487,5.31092437 12.4218487,4.1210084 L12.4218487,1.45210084 L4.6907563,1.45210084 C4.60336134,1.45210084 4.46218487,1.58655462 4.45546218,1.65714286 L4.45546218,21.9663866 C4.45546218,22.0369748 4.57647059,22.1714286 4.6907563,22.1714286 L19.087395,22.1714286 Z M18.7210084,6.78655462 L13.8436975,1.98991597 L13.8436975,4.11764706 C13.8436975,4.90756303 14.0991597,5.57647059 14.5831933,6.05042017 C15.0705882,6.53109244 15.7630252,6.78319328 16.5831933,6.78319328 C16.5831933,6.78655462 18.7210084,6.78655462 18.7210084,6.78655462 L18.7210084,6.78655462 Z M20.4352941,6.45042017 C20.6336134,6.64537815 20.7478992,6.91764706 20.7478992,7.19663866 L20.7478992,21.9663866 C20.7478992,22.8638655 19.9882353,23.6235294 19.087395,23.6235294 L4.6907563,23.6235294 C3.80672269,23.6235294 3.0302521,22.8504202 3.0302521,21.9663866 L3.0302521,1.65714286 C3.0302521,0.789915966 3.82016807,0 4.6907563,0 L13.4537815,0 C13.7260504,0 13.9815126,0.104201681 14.1764706,0.295798319 L20.4352941,6.45042017 Z M6.77478992,13.5831933 C6.49579832,13.297479 6.49579832,12.8403361 6.77478992,12.5579832 L7.7092437,11.6067227 L6.77478992,10.6554622 C6.49579832,10.3697479 6.49579832,9.91260504 6.77478992,9.6302521 C7.04705882,9.3512605 7.49411765,9.34453782 7.7697479,9.61680672 L7.78319328,9.6302521 L8.71764706,10.5815126 L9.65210084,9.6302521 C9.92436975,9.3512605 10.3714286,9.34789916 10.6470588,9.62016807 L10.6571429,9.6302521 C10.9361345,9.91596639 10.9361345,10.3731092 10.6571429,10.6554622 L9.72268908,11.6067227 L10.6571429,12.5579832 C10.9361345,12.8436975 10.9361345,13.3008403 10.6571429,13.5831933 C10.3848739,13.8621849 9.93781513,13.8655462 9.65882353,13.5932773 L9.6487395,13.5831933 L8.71428571,12.6319328 L7.77983193,13.5831933 C7.50420168,13.8621849 7.05714286,13.8655462 6.77815126,13.589916 C6.78151261,13.5865546 6.77815126,13.5831933 6.77478992,13.5831933 L6.77478992,13.5831933 Z M17.1613445,9.62689076 C17.4403361,9.91260504 17.4403361,10.3697479 17.1613445,10.6521008 L16.2268908,11.6033613 L17.1613445,12.5546218 C17.4403361,12.8403361 17.4403361,13.297479 17.1613445,13.5798319 C16.8890756,13.8588235 16.4420168,13.8621849 16.1630252,13.589916 L16.1529412,13.5798319 L15.2184874,12.6285714 L14.2840336,13.5798319 C14.0084034,13.8588235 13.5613445,13.8621849 13.2823529,13.5865546 L13.2756303,13.5798319 C12.9966387,13.2941176 12.9966387,12.8369748 13.2756303,12.5546218 L14.210084,11.6033613 L13.2756303,10.6521008 C12.9966387,10.3663866 12.9966387,9.9092437 13.2756303,9.62689076 C13.5478992,9.34789916 13.994958,9.34117647 14.2705882,9.61344538 L14.2840336,9.62689076 L15.2184874,10.5781513 L16.1529412,9.62689076 C16.4252101,9.34789916 16.8722689,9.34117647 17.1478992,9.61344538 L17.1613445,9.62689076 Z M14.7109244,15.4655462 C15.7428571,15.4890756 16.7815389,16.1747899 16.7815389,17.6537815 C16.7848739,18.0504202 16.4655462,18.3764706 16.0689076,18.3798319 C15.6756303,18.3798319 15.3563025,18.0537815 15.3563025,17.6537815 C15.3563025,17.4386555 15.3563025,16.9344538 14.6806723,16.9176471 L14.5764706,16.9176471 C13.9176471,16.9210084 13.9176471,17.4285714 13.9176471,17.6436975 C13.9176471,19.1563025 12.8789916,19.8319328 11.8537815,19.8386555 L11.6957983,19.8386555 C10.6638655,19.8117647 9.62521008,19.1294118 9.62521008,17.6537815 C9.62521008,17.4386555 9.62521008,16.9344538 8.94957983,16.9176471 L8.84537815,16.9176471 C8.18655462,16.9210084 8.18655462,17.4285714 8.18655462,17.6436975 C8.18991597,18.0403361 7.87058824,18.3663866 7.47394958,18.3697479 C7.08067227,18.3697479 6.76134454,18.0436975 6.76134454,17.6436975 C6.76134454,16.1478992 7.79663866,15.4722689 8.82857143,15.4655462 L8.98319328,15.4655462 C10.0151261,15.4890756 11.0537815,16.1747899 11.0537815,17.6537815 C11.0537815,17.8689076 11.0537815,18.3731092 11.7294118,18.389916 L11.8336134,18.389916 C12.492437,18.3865546 12.492437,17.8789916 12.492437,17.6638655 C12.492437,16.1512605 13.5310924,15.4756303 14.5563025,15.4689076 L14.7109244,15.4655462 L14.7109244,15.4655462 Z" id="Documento-error_2Regular"></path>
        </g>
    </g>
</svg>

<svg width="24" height="24" viewBox="0 0 24 24" xmlns="http://www.w3.org/2000/svg"><path d="M19.087 22.171c.118 0 .232-.117.232-.205V8.24h-2.736c-1.196 0-2.232-.394-2.991-1.143-.767-.757-1.17-1.785-1.17-2.975V1.452H4.69c-.088 0-.229.135-.236.205v20.31c0 .07.121.204.236.204h14.396zm-.366-15.384L13.844 1.99v2.128c0 .79.255 1.458.74 1.932.487.481 1.179.733 2 .733 0 .004 2.137.004 2.137.004zm1.714-.337c.199.195.313.468.313.747v14.77c0 .897-.76 1.657-1.66 1.657H4.69c-.884 0-1.66-.774-1.66-1.658V1.657C3.03.79 3.82 0 4.69 0h8.763c.272 0 .528.104.722.296l6.26 6.154zm-13.66 7.133a.733.733 0 010-1.025l.934-.951-.934-.952a.733.733 0 010-1.025.702.702 0 01.995-.013l.013.013.935.952.934-.952a.702.702 0 01.995-.01l.01.01a.733.733 0 010 1.025l-.934.952.934.951a.733.733 0 010 1.025.706.706 0 01-.998.01l-.01-.01-.935-.951-.934.951a.707.707 0 01-1.002.007c.004-.003 0-.007-.003-.007zM17.16 9.627a.733.733 0 010 1.025l-.934.951.934.952a.733.733 0 010 1.025.706.706 0 01-.998.01l-.01-.01-.935-.951-.934.95a.707.707 0 01-1.002.008l-.006-.007a.733.733 0 010-1.025l.934-.952-.934-.95a.733.733 0 010-1.026.702.702 0 01.995-.014l.013.014.934.951.935-.951a.702.702 0 01.995-.014l.013.014zm-2.45 5.839c1.032.023 2.07.709 2.07 2.188a.72.72 0 01-.712.726.72.72 0 01-.713-.726c0-.215 0-.72-.675-.736h-.105c-.658.003-.658.51-.658.726 0 1.512-1.039 2.188-2.064 2.195h-.158c-1.032-.027-2.07-.71-2.07-2.185 0-.215 0-.72-.676-.736h-.105c-.658.003-.658.51-.658.726a.72.72 0 01-.713.726.72.72 0 01-.713-.726c0-1.496 1.036-2.172 2.068-2.178h.154c1.032.023 2.07.709 2.07 2.188 0 .215 0 .72.676.736h.105c.658-.003.658-.511.658-.726 0-1.513 1.04-2.188 2.064-2.195l.155-.003z" fill="#5CB615" fill-rule="nonzero"/></svg>
